X: 7770
T:Schottische
R:Schottische
M:C
O:France
K:D
d2 A2 B2 AG| FEFG AFED|d2 A2 B2 AG| FEFG A4:|\
A2 AB A4| GFGA F4| DEDE  FEFA |1 GFEG F2 D2 :|2 GFEF D4||
